X:60
T: Cearc agus coileach, S. 177
N: I0559
O: Irland
S: O'SULLIVAN, Donal: Song of the Irish]
N: Melismen, weggelassen: Vorhalt 1. Note, 4. Zeile
R: Scherzlied]
M: 6/8
L: 1/16
K: D
DE | F2D2F2G2E2C2 | D2E2F2G2F2G2 | A2G2A2B2G2E2 | E2F2^G2A4
A=G | F2D2F2G2E2C2 | D2E2F2G2F2G2 | A2G2A2B2G3E | E2D2D2D4
FG | A2d2A2G2F2G2 | A2d2c2d4cd | e2c2A2A2G2F2 | E2F2^G2A4
A=G | F2D2F2G2E2C2 | D2E2F2G2F2GG | A2d2A2B2G2E2 | E2D2D2D4

